packages/ffe-icons/icons/open/300/md/sms.svg

<svg xmlns="http://www.w3.org/2000/svg" height="24" viewBox="0 -960 960 960" width="24"><path d="M320-524.616q14.692 0 25.038-10.346T355.384-560q0-14.692-10.346-25.038T320-595.384q-14.692 0-25.038 10.346T284.616-560q0 14.692 10.346 25.038T320-524.616Zm160 0q14.692 0 25.038-10.346T515.384-560q0-14.692-10.346-25.038T480-595.384q-14.692 0-25.038 10.346T444.616-560q0 14.692 10.346 25.038T480-524.616Zm160 0q14.692 0 25.038-10.346T675.384-560q0-14.692-10.346-25.038T640-595.384q-14.692 0-25.038 10.346T604.616-560q0 14.692 10.346 25.038T640-524.616ZM241.539-260.001l-80.076 80.076q-17.077 17.076-39.269 7.73-22.193-9.346-22.193-33.653v-581.843q0-30.308 21-51.308t51.308-21h615.382q30.308 0 51.308 21t21 51.308v455.382q0 30.308-21 51.308t-51.308 21H241.539ZM216.001-320h571.69q4.616 0 8.463-3.846 3.846-3.847 3.846-8.463v-455.382q0-4.616-3.846-8.463-3.847-3.846-8.463-3.846H172.309q-4.616 0-8.463 3.846-3.846 3.847-3.846 8.463v523.076L216.001-320ZM160-320v-480V-320Z"/></svg>

<svg xmlns="http://www.w3.org/2000/svg" height="24" viewBox="0 -960 960 960" width="24"><path d="m241.54-260-80.08 80.07q-17.07 17.08-39.27 7.74Q100-181.54 100-205.85v-581.84Q100-818 121-839q21-21 51.31-21h615.38Q818-860 839-839q21 21 21 51.31v455.38Q860-302 839-281q-21 21-51.31 21H241.54ZM216-320h571.69q4.62 0 8.46-3.85 3.85-3.84 3.85-8.46v-455.38q0-4.62-3.85-8.46-3.84-3.85-8.46-3.85H172.31q-4.62 0-8.46 3.85-3.85 3.84-3.85 8.46v523.08L216-320Zm-56 0v-480 480Zm160-204.62q14.69 0 25.04-10.34 10.34-10.35 10.34-25.04t-10.34-25.04q-10.35-10.34-25.04-10.34t-25.04 10.34q-10.34 10.35-10.34 25.04t10.34 25.04q10.35 10.34 25.04 10.34Zm160 0q14.69 0 25.04-10.34 10.34-10.35 10.34-25.04t-10.34-25.04q-10.35-10.34-25.04-10.34t-25.04 10.34q-10.34 10.35-10.34 25.04t10.34 25.04q10.35 10.34 25.04 10.34Zm160 0q14.69 0 25.04-10.34 10.34-10.35 10.34-25.04t-10.34-25.04q-10.35-10.34-25.04-10.34t-25.04 10.34q-10.34 10.35-10.34 25.04t10.34 25.04q10.35 10.34 25.04 10.34Z"/></svg>
